N0000 (Machine type - MachMotion Lathe Canned Cycles)
N0005 (Filename: C:\Mach4Dev\Wizards\LatheCannedCycles\Examples\Groove-Simple.tap)
N0010 (Generated on 3/16/2016 at 11:24:09 AM)

N0015 %
N0020 G00 G40 G18 G54 G64 G80 G90.1 G99 G20 (Safe Start Block)
N0025 %

N0030 (Starting Gcode for Grooving Cycle: GroovingCycle-0)
N0035 (Outer Diameter Square Groove, 0.5 wide by 1 deep)
N0040 G50 S2750 (Spindle Speed Cap)
N0045 (Roughing)

N0050 %
N0055 G00 G40 G18 G54 G64 G80 G90.1 G99 G20 (Safe Start Block)
N0060 %

N0065 T0101 (Tool Change)
N0070 G99 (Feed per Revolution)
N0075 G96 S900 (Constant Surface Speed)
N0080 M03 (Spindle Forward)
N0085 G00 X3.280 Z-0.960
N0090 G01 X3.200 F0.038
N000095 G01 X3.000 F0.019
N0100 G01 X3.100 F0.038
N0105 G01 X2.800 F0.019
N0110 G01 X2.900 F0.038
N0115 G01 X2.600 F0.019
N0120 G01 X2.700 F0.038
N0125 G01 X2.400 F0.019
N0130 G01 X2.500 F0.038
N0135 G01 X2.080 F0.019
N00140 G01 X3.200 F0.038
N0145 G00 Z-0.855
N0150 G01 X3.000 F0.019
N0155 G01 X3.100 F0.038
N0160 G01 X2.800 F0.019
N0165 G01 X2.900 F0.038
N0170 G01 X2.600 F0.019
N0175 G01 X2.700 F0.038
N0180 G01 X2.400 F0.019
N0185 G01 X2.500 F0.038
N0190 G01 X2.080 F0.019
N0195 G01 X2.080 Z-0.960 F0.019
N0200 G01 X3.200 F0.038
N0205 G00 Z-0.750
N0210 G01 X3.000 F0.019
N0215 G01 X3.100 F0.038
N0220 G01 X2.800 F0.019
N0225 G01 X2.900 F0.038
N0230 G01 X2.600 F0.019
N0235 G01 X2.700 F0.038
N0240 G01 X2.400 F0.019
N0245 G01 X2.500 F0.038
N0250 G01 X2.080 F0.019
N0255 G01 X2.080 Z-0.855 F0.019
N0260 G01 X3.200 F0.038
N0265 G00 Z-0.665
N0270 G01 X3.000 F0.019
N0275 G01 X3.100 F0.038
N0280 G01 X2.800 F0.019
N0285 G01 X2.900 F0.038
N0290 G01 X2.600 F0.019
N0295 G01 X2.700 F0.038
N0300 G01 X2.400 F0.019
N0305 G01 X2.500 F0.038
N0310 G01 X2.080 F0.019
N0315 G01 X2.080 Z-0.750 F0.019
N0320 G01 X3.200 F0.038
N0325 (Finishing)

N0330 %
N0335 G00 G40 G18 G54 G64 G80 G90.1 G99 G20 (Safe Start Block)
N0340 %

N0345 T0101 (Tool Change)
N0350 G99 (Feed per Revolution)
N0355 G96 S900 (Constant Surface Speed)
N0360 M03 (Spindle Forward)
N00365 G00 Z-1.000
N0370 G01 X3.000 Z-1.000 F0.019 (Section 1 Start)
N000375 G01 X2.000 Z-1.000 F0.019 (Section 2 End)
N0380 G01 X2.125 F0.019 (Retreat 1 a)
N0385 G01 Z-0.813 F0.019 (Retreat 1 b)
N0390 G00 X3.200 (Retreat 1 c)
N0395 G00 Z-0.625 (Retreat 1 d)
N0400 G01 X3.000 Z-0.625 F0.019 (Section 5 Start)
N000405 G01 X2.000 Z-0.625 F0.019 (Section 4 End)
N00410 G01 X2.000 Z-1.000 F0.019 (Floor End)
N0415 G01 X2.125 F0.019 (Retreat 2 a)
N0420 G01 Z-0.813 F0.019 (Retreat 2 b)
N0425 G00 X3.200 (Retreat 2 c)
N0430 (End Gcode for Grooving Cycle: GroovingCycle-0)

N0435 %
N0440 M05
N0445 M30
N0450 %
N0455 (End Gcode file)
N0460 %

