N0000 (Machine type - MachMotion Lathe Canned Cycles)
N0005 (Filename: C:\Mach4Dev\Wizards\LatheCannedCycles\Examples\Rounding-Ballnose.tap)
N0010 (Generated on 3/16/2016 at 11:17:27 AM)

N0015 %
N0020 G00 G40 G18 G54 G64 G80 G90.1 G99 G20 (Safe Start Block)
N0025 %

N0030 (Starting Gcode for Rounding Cycle: RoundingCycle-0)
N0035 ([Xi, Zi] = [3, 1.5]; [Xf, Zf] = [0, 3]; Radius = 3; Z- Direction; OD)
N0040 G50 S2750 (Spindle Speed Cap)
N0045 (Roughing)

N0050 %
N0055 G00 G40 G18 G54 G64 G80 G90.1 G99 G20 (Safe Start Block)
N0060 %

N0065 T0101 (Tool Change)
N0070 G99 (Feed per Revolution)
N0075 G96 S500 (Constant Surface Speed)
N0080 M03 (Spindle Forward)
N0085 G00 X3.020 Z3.050  (Rapid move to Clearance Height)
N0090 G01 X2.800 F0.010  (Cut in on X-Axis)
N0095 G01 Z2.173 F0.010  (Cut in on Z-Axis)
N0100 G03 X3.000 Z1.884 R1.837 F0.010  (Spring Pass Sweep)
N0105 G00 X3.020 Z2.183  (Pull out to Retreat)
N0110 G00 Z3.050  (Pull out to Clearance)
N0115 G00 X2.820 Z3.050  (Rapid move to Clearance Height)
N0120 G01 X2.600 F0.010  (Cut in on X-Axis)
N0125 G01 Z2.354 F0.010  (Cut in on Z-Axis)
N0130 G03 X2.800 Z2.173 R1.954 F0.010  (Spring Pass Sweep)
N0135 G00 X2.820 Z2.364  (Pull out to Retreat)
N0140 G00 Z3.050  (Pull out to Clearance)
N0145 G00 X2.620 Z3.050  (Rapid move to Clearance Height)
N0150 G01 X2.400 F0.010  (Cut in on X-Axis)
N0155 G01 Z2.491 F0.010  (Cut in on Z-Axis)
N0160 G03 X2.600 Z2.354 R2.024 F0.010  (Spring Pass Sweep)
N0165 G00 X2.620 Z2.501  (Pull out to Retreat)
N0170 G00 Z3.050  (Pull out to Clearance)
N0175 G00 X2.420 Z3.050  (Rapid move to Clearance Height)
N0180 G01 X2.200 F0.010  (Cut in on X-Axis)
N0185 G01 Z2.601 F0.010  (Cut in on Z-Axis)
N0190 G03 X2.400 Z2.491 R2.075 F0.010  (Spring Pass Sweep)
N0195 G00 X2.420 Z2.611  (Pull out to Retreat)
N0200 G00 Z3.050  (Pull out to Clearance)
N0205 G00 X2.220 Z3.050  (Rapid move to Clearance Height)
N0210 G01 X2.000 F0.010  (Cut in on X-Axis)
N0215 G01 Z2.693 F0.010  (Cut in on Z-Axis)
N0220 G03 X2.200 Z2.601 R2.116 F0.010  (Spring Pass Sweep)
N0225 G00 X2.220 Z2.703  (Pull out to Retreat)
N0230 G00 Z3.050  (Pull out to Clearance)
N0235 G00 X2.020 Z3.050  (Rapid move to Clearance Height)
N0240 G01 X1.800 F0.010  (Cut in on X-Axis)
N0245 G01 Z2.769 F0.010  (Cut in on Z-Axis)
N0250 G03 X2.000 Z2.693 R2.149 F0.010  (Spring Pass Sweep)
N0255 G00 X2.020 Z2.779  (Pull out to Retreat)
N0260 G00 Z3.050  (Pull out to Clearance)
N0265 G00 X1.820 Z3.050  (Rapid move to Clearance Height)
N0270 G01 X1.600 F0.010  (Cut in on X-Axis)
N0275 G01 Z2.833 F0.010  (Cut in on Z-Axis)
N0280 G03 X1.800 Z2.769 R2.176 F0.010  (Spring Pass Sweep)
N0285 G00 X1.820 Z2.843  (Pull out to Retreat)
N0290 G00 Z3.050  (Pull out to Clearance)
N0295 G00 X1.620 Z3.050  (Rapid move to Clearance Height)
N0300 G01 X1.400 F0.010  (Cut in on X-Axis)
N0305 G01 Z2.887 F0.010  (Cut in on Z-Axis)
N0310 G03 X1.600 Z2.833 R2.199 F0.010  (Spring Pass Sweep)
N0315 G00 X1.620 Z2.897  (Pull out to Retreat)
N0320 G00 Z3.050  (Pull out to Clearance)
N0325 G00 X1.420 Z3.050  (Rapid move to Clearance Height)
N0330 G01 X1.200 F0.010  (Cut in on X-Axis)
N0335 G01 Z2.932 F0.010  (Cut in on Z-Axis)
N0340 G03 X1.400 Z2.887 R2.217 F0.010  (Spring Pass Sweep)
N0345 G00 X1.420 Z2.942  (Pull out to Retreat)
N0350 G00 Z3.050  (Pull out to Clearance)
N0355 G00 X1.220 Z3.050  (Rapid move to Clearance Height)
N0360 G01 X1.000 F0.010  (Cut in on X-Axis)
N0365 G01 Z2.968 F0.010  (Cut in on Z-Axis)
N0370 G03 X1.200 Z2.932 R2.233 F0.010  (Spring Pass Sweep)
N0375 G00 X1.220 Z2.978  (Pull out to Retreat)
N0380 G00 Z3.050  (Pull out to Clearance)
N0385 G00 X1.020 Z3.050  (Rapid move to Clearance Height)
N0390 G01 X0.800 F0.010  (Cut in on X-Axis)
N0395 G01 Z2.996 F0.010  (Cut in on Z-Axis)
N0400 G03 X1.000 Z2.968 R2.245 F0.010  (Spring Pass Sweep)
N0405 G00 X1.020 Z3.006  (Pull out to Retreat)
N0410 G00 Z3.050  (Pull out to Clearance)
N0415 G00 X0.820 Z3.050  (Rapid move to Clearance Height)
N0420 G01 X0.600 F0.010  (Cut in on X-Axis)
N0425 G01 Z3.017 F0.010  (Cut in on Z-Axis)
N0430 G03 X0.800 Z2.996 R2.255 F0.010  (Spring Pass Sweep)
N0435 G00 X0.820 Z3.027  (Pull out to Retreat)
N0440 G00 Z3.050  (Pull out to Clearance)
N0445 G00 X0.620 Z3.050  (Rapid move to Clearance Height)
N0450 G01 X0.400 F0.010  (Cut in on X-Axis)
N0455 G01 Z3.031 F0.010  (Cut in on Z-Axis)
N0460 G03 X0.600 Z3.017 R2.262 F0.010  (Spring Pass Sweep)
N0465 G00 X0.620 Z3.041  (Pull out to Retreat)
N0470 G00 Z3.050  (Pull out to Clearance)
N0475 G00 X0.420 Z3.050  (Rapid move to Clearance Height)
N0480 G01 X0.200 F0.010  (Cut in on X-Axis)
N0485 G01 Z3.039 F0.010  (Cut in on Z-Axis)
N0490 G03 X0.400 Z3.031 R2.267 F0.010  (Spring Pass Sweep)
N0495 G00 X0.420 Z3.049  (Pull out to Retreat)
N0500 G00 Z3.050  (Pull out to Clearance)
N0505 G00 X0.220 Z3.050  (Rapid move to Clearance Height)
N0510 G01 X0.080 F0.010  (Cut in on X-Axis)
N0515 G01 Z3.040 F0.010  (Cut in on Z-Axis)
N0520 G03 X0.200 Z3.039 R2.270 F0.010  (Spring Pass Sweep)
N0525 G00 X0.220 Z3.050  (Pull out to Retreat)
N00530 (Finishing)

N0535 %
N0540 G00 G40 G18 G54 G64 G80 G90.1 G99 G20 (Safe Start Block)
N0545 %

N0550 T0101 (Tool Change)
N0555 G99 (Feed per Revolution)
N0560 G96 S500 (Constant Surface Speed)
N0565 M03 (Spindle Forward)
N0570 G01 G42 X0 Z3.049 (Turn on Compensation)
N0575 G01 X0.000 Z3.000 F0.010 (Finish Adjust Move)
N0580 G03 X3.000 Z1.500 R1.500 F0.010 (Finish Arc Move)
N0585 G00 G40 X3.02 Z3.05 (Return to clearance)
N0590 (End Gcode for Rounding Cycle: RoundingCycle-0)

N0595 %
N0600 M05
N0605 M30
N0610 %
N0615 (End Gcode file)
N0620 %

