N0000 (Machine type - MachMotion Lathe Canned Cycles)
N0005 (Filename: C:\Mach4Dev\Modules\AddOns\LatheCannedCycles\Examples\ContouredTurning.tap)
N0010 (Generated on 1/20/2016 at 11:13:00 AM)

N0015 %
N0020 G00 G40 G18 G54 G64 G80 G90.1 G99 G20 (Safe Start Block)
N0025 %

N0030 (Starting Gcode for Turning Cycle: TurnCycle-0)
N0035 ([Xi, Zi] = [3, 0]; [Xf, Zf] = [2, -3]; Z- Direction; OD)
N0040 G50 S2750 (Spindle Speed Cap)
N0045 (Roughing)

N0050 %
N0055 G00 G40 G18 G54 G64 G80 G90.1 G99 G20 (Safe Start Block)
N0060 %

N0065 T0101 (Tool Change)
N0070 G99 (Feed per Revolution)
N0075 G96 S900 (Constant Surface Speed)
N0080 M03 (Spindle Forward)
N0085 G00 X3.200 Z0.100  (Rapid move to Clearance Height)
N0090 G01 X2.860 F0.019  (Cut in on X-Axis)
N0095 G01 Z-2.960 F0.019  (Cut in on Z-Axis)
N0100 G01 X3.000 Z-3.030 F0.019  (Spring Pass)
N0105 G00 X3.200 Z-2.860  (Pull out to Retreat)
N0110 G00 Z0.100  (Pull out to Clearance)
N0115 G00 X3.060 Z0.100  (Rapid move to Clearance Height)
N0120 G01 X2.660 F0.019  (Cut in on X-Axis)
N0125 G01 Z-2.960 F0.019  (Cut in on Z-Axis)
N0130 G01 X2.860 Z-2.960 F0.019  (Spring Pass)
N0135 G00 X3.060 Z-2.860  (Pull out to Retreat)
N0140 G00 Z0.100  (Pull out to Clearance)
N0145 G00 X2.860 Z0.100  (Rapid move to Clearance Height)
N0150 G01 X2.460 F0.019  (Cut in on X-Axis)
N0155 G01 Z-2.960 F0.019  (Cut in on Z-Axis)
N0160 G01 X2.660 Z-2.960 F0.019  (Spring Pass)
N0165 G00 X2.860 Z-2.860  (Pull out to Retreat)
N0170 G00 Z0.100  (Pull out to Clearance)
N0175 G00 X2.660 Z0.100  (Rapid move to Clearance Height)
N0180 G01 X2.280 F0.019  (Cut in on X-Axis)
N0185 G01 Z-2.960 F0.019  (Cut in on Z-Axis)
N0190 G01 X2.460 Z-2.960 F0.019  (Spring Pass)
N0195 G00 X2.660 Z-2.860  (Pull out to Retreat)
N0200 G00 Z0.100  (Pull out to Clearance)
N0205 G00 X2.480 Z0.100  (Rapid move to Clearance Height)
N0210 G01 X2.080 F0.019  (Cut in on X-Axis)
N0215 G01 Z-2.860 F0.019  (Cut in on Z-Axis)
N0220 G02 X2.280 Z-2.960 I1.140 K-2.760 F0.019  (Spring Pass Sweep)
N0225 G00 X2.480 Z-2.760  (Pull out to Retreat)
N0230 G00 Z0.100  (Pull out to Clearance)
N0235 G00 X2.280 Z0.100  (Rapid move to Clearance Height)
N0240 G01 X1.940 F0.019  (Cut in on X-Axis)
N0245 G01 Z-0.000 F0.019  (Cut in on Z-Axis)
N0250 G01 X2.080 Z-0.070 F0.019  (Spring Pass)
N0255 G00 X2.280 Z0.100  (Pull out to Retreat)
N00260 (Finishing)

N0265 %
N0270 G00 G40 G18 G54 G64 G80 G90.1 G99 G20 (Safe Start Block)
N0275 %

N0280 T0101 (Tool Change)
N0285 G99 (Feed per Revolution)
N0290 G96 S900 (Constant Surface Speed)
N0295 M03 (Spindle Forward)
N0300 G01 G42 X1.86 Z0.14
N0305 G01 X1.860 Z-0.000 F0.019
N0310 G01 X2.000 Z-0.070 F0.019
N0315 G01 X2.000 Z-2.900 F0.019
N0320 G02 X2.200 Z-3.000 I1.100 K-2.900 F0.019
N00325 G01 X2.860 Z-3.000 F0.019
N00330 G01 X3.000 Z-3.070 F0.019
N0335 G00 X3.200 Z-2.970
N0340 G00 G40 X3.2 Z0.1
N0345 (End Gcode for Turning Cycle: TurnCycle-0)

N0350 %
N0355 M30
N0360 %
N0365 (End Gcode file)
N0370 %

